Obsidian/actions/16s/path-mode-polyline-paraxial.svg

<svg viewBox="0 0 16 16" xmlns="http://www.w3.org/2000/svg"><path d="m2 2v3h1v6h-1v3h3v-1h4v1h3v-3h-3v1h-4v-1h-1v-6h1v-1h6v1h3v-3h-3v1h-6v-1zm1 1h1v1h-1zm9 0h1v1h-1zm-9 9h1v1h-1zm7 0h1v1h-1z" fill="#f2f2f2"/></svg>

<svg xmlns="http://www.w3.org/2000/svg" viewBox="0 0 16 16">
  <defs id="defs3051">
    <style type="text/css" id="current-color-scheme">
      .ColorScheme-Text {
        color:#f2f2f2;
      }
      </style>
  </defs>
 <path style="fill:currentColor;fill-opacity:1;stroke:none" 
     d="M 2 2 L 2 5 L 3 5 L 3 11 L 2 11 L 2 14 L 5 14 L 5 13 L 9 13 L 9 14 L 12 14 L 12 11 L 9 11 L 9 12 L 5 12 L 5 11 L 4 11 L 4 5 L 5 5 L 5 4 L 11 4 L 11 5 L 14 5 L 14 2 L 11 2 L 11 3 L 5 3 L 5 2 L 2 2 z M 3 3 L 4 3 L 4 4 L 3 4 L 3 3 z M 12 3 L 13 3 L 13 4 L 12 4 L 12 3 z M 3 12 L 4 12 L 4 13 L 3 13 L 3 12 z M 10 12 L 11 12 L 11 13 L 10 13 L 10 12 z "
     class="ColorScheme-Text"
     />
</svg>
